images/class_icons/soothsinger.svg

<svg height="400" viewBox="0 0 400 400" width="400" xmlns="http://www.w3.org/2000/svg"><path d="m230.769 4.476c-53.038 2.102-94.482 14.679-123.212 37.39-6.125 4.841-8.707 7.852-8.846 10.317-.093 1.655-.423-.393 11.488 71.301 15.66 94.254 23.486 141.656 23.402 141.741-.023.023-1.879-.413-4.124-.968-23.97-5.93-51.165-1.506-75.918 12.35-24.933 13.957-42.964 36.545-46.561 58.33-.755 4.573-.686 13.631.132 17.35 4.383 19.924 19.427 33.21 42.887 37.875 9.063 1.803 22.396 1.92 32.344.286 41.104-6.754 76.694-35.628 84.629-68.659.991-4.124 1.197-6.19 1.309-13.148l.083-5.083-1.501-8.268c-3.381-18.625-18.025-100.853-23.004-129.177l-5.339-30.362.766-.729c5.396-5.136 18.986-12.704 31.147-17.346 20.418-7.793 43.13-12.396 72.653-14.726 23.647-1.865 50.247-1.755 67.909.281 12.657 1.46 27.541 4.547 30.284 6.282.372.235 1.307 7.213 8.408 62.768 8.915 69.75 11.2 87.977 11.07 88.316-.097.252.028.27-3.201-.483-16.066-3.749-32.668-3.093-50.153 1.981-49.379 14.329-82.183 58.111-69.684 93.004 8.549 23.863 37.749 36.618 72.192 31.533 43.485-6.421 82.112-39.361 86.685-73.924.839-6.338.733-8.682-1.097-24.263-3.027-25.78-30.792-250.218-31.314-253.126-.431-2.404-3.34-5.028-9.96-8.987-19.559-11.694-47.636-18.849-83.91-21.382-6.541-.457-32.237-.765-39.564-.474" fill-rule="evenodd"/></svg>

<svg id="svg" xmlns="http://www.w3.org/2000/svg" xmlns:xlink="http://www.w3.org/1999/xlink" width="400" height="400" viewBox="0, 0, 400,400"><g id="svgg"><path id="path0" d="M230.769 4.476 C 177.731 6.578,136.287 19.155,107.557 41.866 C 101.432 46.707,98.850 49.718,98.711 52.183 C 98.618 53.838,98.288 51.790,110.199 123.484 C 125.859 217.738,133.685 265.140,133.601 265.225 C 133.578 265.248,131.722 264.812,129.477 264.257 C 105.507 258.327,78.312 262.751,53.559 276.607 C 28.626 290.564,10.595 313.152,6.998 334.937 C 6.243 339.510,6.312 348.568,7.130 352.287 C 11.513 372.211,26.557 385.497,50.017 390.162 C 59.080 391.965,72.413 392.082,82.361 390.448 C 123.465 383.694,159.055 354.820,166.990 321.789 C 167.981 317.665,168.187 315.599,168.299 308.641 L 168.382 303.558 166.881 295.290 C 163.500 276.665,148.856 194.437,143.877 166.113 L 138.538 135.751 139.304 135.022 C 144.700 129.886,158.290 122.318,170.451 117.676 C 190.869 109.883,213.581 105.280,243.104 102.950 C 266.751 101.085,293.351 101.195,311.013 103.231 C 323.670 104.691,338.554 107.778,341.297 109.513 C 341.669 109.748,342.604 116.726,349.705 172.281 C 358.620 242.031,360.905 260.258,360.775 260.597 C 360.678 260.849,360.803 260.867,357.574 260.114 C 341.508 256.365,324.906 257.021,307.421 262.095 C 258.042 276.424,225.238 320.206,237.737 355.099 C 246.286 378.962,275.486 391.717,309.929 386.632 C 353.414 380.211,392.041 347.271,396.614 312.708 C 397.453 306.370,397.347 304.026,395.517 288.445 C 392.490 262.665,364.725 38.227,364.203 35.319 C 363.772 32.915,360.863 30.291,354.243 26.332 C 334.684 14.638,306.607 7.483,270.333 4.950 C 263.792 4.493,238.096 4.185,230.769 4.476 " stroke="none" fill="#000000" fill-rule="evenodd"></path></g></svg>
